X:1
T:Victory (Palestrina), 888 alleluias
T:Victory (Palestrina), 888 alleluias
T:Giovanni Pierluigi da Palestrina, 1591
T:Arranged by William Henry Monk, 1861 Public Domain, Courtesy of the Cyber Hymnal™
C:Giovanni Pierluigi da Palestrina, 1591
Z:Arranged by William Henry Monk, 1861
Z:Public Domain, Courtesy of the Cyber Hymnal™
%%score 1 2
L:1/8
M:3/4
K:D
V:1 treble 
V:2 bass 
V:1
 [FA]2 [FA]2 [FA]2 | [GB]4 [FA]2 | ([FA]2 [B,G]2) [DF]2 | [EA]6 | [DF]2 [DF]2 [DF]2 | [DF]4 [CF]2 | %6
 ([DF]2 [B,E]2) [B,D]2 | [CE]6 | [CA]2 [FA]2 [FA]2 | [GB]4 [FA]2 | ([FA]2 [B,G]2) [DF]2 | [EA]6 | %12
 z2 [DA]2 [Fd]2 | [Ec]6 | [Fd]6 | z2 [DF]2 [DF]2 | [DG]6 | [DF]2 [DA]2 [DA]2 | [DB]6 | %19
 [DA]2 [DA]2 [Fd]2 | [Ec]6 | !fermata![Fd]6 |] %22
V:2
 [D,D]2 [D,D]2 [D,D]2 | [G,D]4 [D,D]2 | ([F,C]2 [E,E]2) [B,D]2 | [A,C]6 | [D,A,]2 [D,A,]2 [D,A,]2 | %5
 [B,,B,]4 [F,A,]2 | ([D,A,]2 [E,G,]2) [B,,F,]2 | [A,,A,]6 | [F,A,]2 [D,D]2 [D,D]2 | [G,D]4 [D,D]2 | %10
 ([F,C]2 [E,E]2) [B,D]2 | [A,C]6 | z2 [F,D]2 [D,A,]2 | [A,,A,]6 | [F,A,]6 | D,,2 [D,A,]2 [D,A,]2 | %16
 [G,,B,]6 | [D,A,]2 [D,F,]2 [D,F,]2 | [G,,G,]6 | [D,F,]2 [F,A,]2 [D,A,]2 | [A,,A,]6 | %21
 !fermata![D,A,]6 |] %22

